website/themes/uppy/source/images/transloadit-white-glyph.svg

<?xml version="1.0" encoding="UTF-8"?>
<svg width="300px" height="120px" viewBox="0 0 300 120" version="1.1" xmlns="http://www.w3.org/2000/svg" xmlns:xlink="http://www.w3.org/1999/xlink">
    <!-- Generator: Sketch 61.2 (89653) - https://sketch.com -->
    <title>logos-transloadit-white-glyph</title>
    <desc>Created with Sketch.</desc>
    <g id="logos-transloadit-white-glyph" stroke="none" stroke-width="1" fill="none" fill-rule="evenodd">
        <g id="Group" transform="translate(123.000000, 33.000000)" fill="#FFFFFE" fill-rule="nonzero">
            <path d="M52.518375,20.1307499 C53.1742501,23.689125 53.42625,32.6351249 53.42625,41.407875 C53.42625,49.0274999 40.0050001,54 26.713125,54 C13.4145,54 0,49.0274999 0,41.407875 C0,32.6351249 0.245249999,23.689125 0.907875,20.1307499 C1.521,16.8075 15.58575,14.35275 24.79275,14.036625 L24.79275,7.66237501 C23.4011249,7.04924999 22.4189999,5.64187499 22.4189999,3.999375 C22.4189999,1.792125 24.192,0 26.375625,0 C28.5648749,0 30.337875,1.792125 30.337875,3.999375 C30.337875,5.64187499 29.3568751,7.04924999 27.9585,7.66237501 L27.9585,14.0175 C37.1339999,14.234625 51.8861249,16.7265 52.518375,20.1307499 Z M33.5520001,50.2863749 C34.3192499,49.8712499 34.6005,48.8981251 34.1898751,48.1229999 C33.7724999,47.341125 32.8095001,47.0564999 32.0433751,47.4783749 C32.018625,47.4840001 29.9272501,48.5808751 26.6940001,48.5808751 C23.4922499,48.5808751 21.438,47.503125 21.3828749,47.4783749 C20.6156251,47.0564999 19.659375,47.341125 19.2420001,48.110625 C18.819,48.8857499 19.1002501,49.858875 19.8674999,50.2863749 C19.9777501,50.34825 22.609125,51.7803751 26.6940001,51.7803751 C30.77325,51.7803751 33.436125,50.34825 33.5520001,50.2863749 Z M5.77237501,37.0991251 C5.77237501,42.0716249 9.75937499,46.1013749 14.67225,46.1013749 C19.591875,46.1013749 23.5788751,42.0716249 23.5788751,37.0991251 C23.5788751,32.1277501 19.591875,28.096875 14.67225,28.096875 C9.75937499,28.096875 5.77237501,32.1277501 5.77237501,37.0991251 Z M38.7472499,46.1013749 C43.6668751,46.1013749 47.6538749,42.0716249 47.6538749,37.0991251 C47.6538749,32.1277501 43.6668751,28.096875 38.7472499,28.096875 C33.827625,28.096875 29.8406249,32.1277501 29.8406249,37.0991251 C29.8406249,42.0716249 33.827625,46.1013749 38.7472499,46.1013749 Z" id="Shape"></path>
            <path d="M16.6533751,41.0985001 C15.562125,41.0985001 14.67225,40.199625 14.67225,39.1016249 C14.67225,37.9979999 15.562125,37.0991251 16.6533751,37.0991251 C17.74575,37.0991251 18.6345001,37.9979999 18.6345001,39.1016249 C18.6345001,40.199625 17.74575,41.0985001 16.6533751,41.0985001 Z M14.67225,31.0983751 C11.403,31.0983751 8.74125,33.7882501 8.74125,37.0991251 C8.74125,40.4100001 11.403,43.1009999 14.67225,43.1009999 C17.9471249,43.1009999 20.6099999,40.4100001 20.6099999,37.0991251 C20.6099999,33.7882501 17.9471249,31.0983751 14.67225,31.0983751 L14.67225,31.0983751 Z" id="Shape"></path>
            <path d="M40.7243037,41.0985001 C39.6334379,41.0985001 38.7438762,40.199625 38.7438762,39.1016249 C38.7438762,37.9979999 39.6334379,37.0991251 40.7243037,37.0991251 C41.8162941,37.0991251 42.7047313,37.9979999 42.7047313,39.1016249 C42.7047313,40.199625 41.8162941,41.0985001 40.7243037,41.0985001 Z M38.7438762,31.0983751 C35.4757772,31.0983751 32.8149642,33.7882501 32.8149642,37.0991251 C32.8149642,40.4100001 35.4757772,43.1009999 38.7438762,43.1009999 C42.0175983,43.1009999 44.6795358,40.4100001 44.6795358,37.0991251 C44.6795358,33.7882501 42.0175983,31.0983751 38.7438762,31.0983751 L38.7438762,31.0983751 Z" id="Shape"></path>
        </g>
    </g>
</svg>

<svg width="54" height="54" viewBox="0 0 54 54" xmlns="http://www.w3.org/2000/svg"><g fill="#FFFFFE" fill-rule="nonzero"><path d="M52.518 20.13c.656 3.56.908 12.505.908 21.278C53.426 49.028 40.005 54 26.713 54 13.414 54 0 49.027 0 41.408c0-8.773.245-17.719.908-21.277.613-3.323 14.678-5.778 23.885-6.094V7.662A3.999 3.999 0 0122.419 4C22.419 1.792 24.192 0 26.376 0c2.189 0 3.962 1.792 3.962 4 0 1.642-.981 3.05-2.38 3.662v6.356c9.176.217 23.928 2.709 24.56 6.113zM33.552 50.287c.767-.415 1.048-1.388.638-2.163a1.571 1.571 0 00-2.147-.645c-.024.006-2.116 1.103-5.349 1.103-3.202 0-5.256-1.078-5.311-1.103a1.57 1.57 0 00-2.141.633 1.61 1.61 0 00.625 2.175c.11.062 2.742 1.494 6.827 1.494 4.08 0 6.742-1.432 6.858-1.494zM5.772 37.1c0 4.973 3.987 9.002 8.9 9.002 4.92 0 8.907-4.03 8.907-9.002 0-4.971-3.987-9.002-8.907-9.002-4.913 0-8.9 4.03-8.9 9.002zm32.975 9.002c4.92 0 8.907-4.03 8.907-9.002 0-4.971-3.987-9.002-8.907-9.002s-8.906 4.03-8.906 9.002c0 4.973 3.987 9.002 8.906 9.002z"/><path d="M16.653 41.099a1.994 1.994 0 01-1.98-1.997c0-1.104.89-2.003 1.98-2.003 1.093 0 1.982.899 1.982 2.003a1.993 1.993 0 01-1.982 1.997zm-1.98-10c-3.27 0-5.932 2.69-5.932 6 0 3.311 2.662 6.002 5.931 6.002 3.275 0 5.938-2.691 5.938-6.002 0-3.31-2.663-6-5.938-6zM40.724 41.099c-1.09 0-1.98-.9-1.98-1.997 0-1.104.89-2.003 1.98-2.003 1.092 0 1.98.899 1.98 2.003a1.993 1.993 0 01-1.98 1.997zm-1.98-10c-3.268 0-5.929 2.69-5.929 6 0 3.311 2.66 6.002 5.929 6.002 3.274 0 5.936-2.691 5.936-6.002 0-3.31-2.662-6-5.936-6z"/></g></svg>
